X:1
T:Standin In The Need of Prayer
T:Swing Low
T:Copyright 1918 by Homer A. Rodeheaver
T:Rodeheaver's Plantation Melodies
T:Rodeheaver's Plantation Melodies
Z:Rodeheaver's Plantation Melodies
%%score [ 1 2 3 4 ]
L:1/8
Q:1/4=60
M:2/4
K:G
V:1 treble nm="Soprano" snm="S."
V:2 treble nm="Alto" snm="A."
V:3 bass nm="Tenor" snm="T."
V:4 bass nm="Bass" snm="B."
V:1
"^SLOW" B | G3 B | G>G E<D | G/<G/G/>G/ B/d/d | d3 e/<d/ | B3 d | G>G E<D | G/<G/G/>G/ B/<B/A | %8
w: Swing|low, sweet|char- i- ot- ,||||||
 G3!fine! :| B z z2 | d/G-G/ E/GG/ | G/-G/G E<D | G/<G/G/>G/ B/<d/d | d3 d | e/<d/B BG | z4 | z4 | %17
w: |||||||||
 z4 | z4 | z4 | z4 | z4 | z4 | z4 | z4 | z4 | z4 | z4 | z4 | z4 | z4 | z4 | z4 |] %33
w: ||||||||||||||||
V:2
 z | z4 | z4 | G/<G/G/>G/ G/G/G | (G4 | D4-) | D4 | G/<G/G/>G/ G/<G/F | G3 :| z4 | z4 | z4 | %12
w: |||Com- ing for to car- ry me|||||||||
 G/<G/G/>G/ G/<G/G | z4 | z4 | z4 | z4 | z4 | z4 | z4 | z4 | z4 | z4 | z4 | z4 | z4 | z4 | z4 | %28
w: ||||||||||||||||
 z4 | z4 | z4 | z4 | z4 |] %33
w: |||||
V:3
 z | z4 | z4 | B,/<B,/B,/>B,/ D/B,/B, | B,4- | B,4- | B,4 | B,/<B,/B,/>C/ D/<D/C | B,3 :| z4 | z4 | %11
 z4 | z4 | z4 | z4 | z4 | z4 | z4 | z4 | z4 | z4 | z4 | z4 | z4 | z4 | z4 | z4 | z4 | z4 | z4 | %30
 z4 | z4 | z4 |] %33
V:4
 z | z4 | z4 | G,/<G,/G,/>G,/ G,/G,/G, | G,4- | G,4- | G,4 | G,/<G,/G,/>E,/ D,/<D,/D, | G,,3 :| %9
 z4 | z4 | z4 | z4 | z4 | z4 | z4 | z4 | z4 | z4 | z4 | z4 | z4 | z4 | z4 | z4 | z4 | z4 | z4 | %28
 z4 | z4 | z4 | z4 | z4 |] %33

